X:108
T:Trip to Brussels. RH.108
R:Country Dance
S:Rev.R.Harrison’s MS,c1815,Cumbria
N:This is a polka.PJH.This is 1815.CGP.
O:England
A:Temple Sowerby,Cumbria
Z:vmp.Simon Wilson. Review PJH, 2008.
M:2/4
L:1/16
Q:1/4=100
K:G
|:Bc|d2fg e2fg|d2g2 d2B2|d2c2 A2B2|GABc d2Bc|!
d2eg e2fg|d2gf edcB|A2d2 c2A2|G2B2 G2:|!
AB|d2c2A2 Bc|e2d2B2 d2|gfed gfed|cBAG d2 AB|!
d2c2A2 Bc|e2d2B2 d2|gfed cBAG|d4 zBc|!
d2fg e2fg|d2gf edcB|A2fe dcBA|G2B2G2|]

